X:1
T:(1890)
T:Arr. Carrie V. Hayden (fl. 1890)
T:"That Is Love" Schottische
%%score { ( 1 2 ) ( 3 4 ) }
L:1/8
Q:1/4=108
M:4/4
K:A
V:1 treble-8 nm="Guitare classique"
V:2 treble-8 
V:3 tab stafflines=6 strings=E2,A2,D3,G3,B3,E4 nostems nm="Guitare classique [Tablature]"
V:4 tab stafflines=6 strings=E2,A2,D3,G3,B3,E4 nostems 
V:1
 (!-(!E<!-)!F)G/ | A>cf>c e>cB>A | G>Bd>f e2 [Gde]2 | d>eg>e f>e[Bd]>B | A>Bc>f e2 [Ace]2 | %5
 A>cf>c e>cB>A | G>Be>g b>b^a>b |{/b} c'2 b2 [^B^da]2 c>d | %8
 !arpeggio![GBe]>^df>e !arpeggio!!>![EG=d]>(!-(!E!-)!F>)G | A>cf>c e>cB>A | G>Bd>f e2 [Gde]2 | %11
 d>eg>e f>e[Bd]>B | A>Bc>f e2 [Ace]2 | A>cf>c e>cB>A | d>da>a ^d>da>a | e>^eg>f =e>=dF>G | %16
 B2 z2 [EA]2 E2 ||[K:C] A2 B2 [Ac]2 [Ad]2 | [Ace]>ea>e g>fe>d | c>ed>c B>cd>B | c>BA>c B>^GE>E | %21
 A2 B2 [Ac]2 [Ad]2 | [Ace]>ea>e g>fe>d | (3ced (3cBA ^G>E^F>G | A2 E2 A2 E2 | A2 B2 [Ac]2 [Ad]2 | %26
 [Ace]>ea>e g>fe>d | c>ed>c B>cd>B | c>BA>c B>^GE>E | A2 B2 [Ac]2 [Ad]2 | [Ace]>ea>e g>fe>d | %31
 (3ced (3cBA ^G>E^F>G | A2 E2 A>E^F>^G ||[K:A] A>cf>c e>cB>A | G>Bd>f e2 [Gde]2 | %35
 d>eg>e f>e[Bd]>B | A>Bc>f e2 [Ace]2 | A>cf>c e>cB>A | d>da>a ^d>da>a | e>^eg>f =e>=dF>G | %40
 B2 z2 [EA]2 A2 ||[K:D]{/f} a^gba fA=gf | f2 [GBe]2 [GB]2 z2 | [Ace]^dfe [Acg]ecA | %44
{/c} B2 A2 f2 [Ad]2 |{/f} a^gba fA=gf | f2 [EAc]2 [Ace]2 E2 | [Bd^g][Bdg][Bdg][Bdg] [Bdg][Bdg] ab | %48
 [cea]2 [Ec]2 [Fd]2 [=Gce]2 |{/f} a^gba fA=gf | f2 [GBe]2 [GB]2 z2 | [Ace]^dfe [Acg]ecA | %52
{/c} B2 A2 f2 [Ad]2 | [Fa]a [^E^g]g [=E=g]g [Df]f | e2{/^g} b2 e2 dB | A2 E2 A2 [Gca]>c | %56
 d2 (3A,Af !fermata![Ad]3/2 ||[K:A] E<FG/ | A>cf>c e>cB>A | G>Bd>f e2 [Gde]2 | d>eg>e f>e[Bd]>B | %61
 A>Bc>f e2 [Ace]2 | A>cf>c e>cB>A | G>Be>g b>b^a>b |{/b} c'2 b2 [^B^da]2 c>d | %65
 !arpeggio![GBe]>^df>e !arpeggio!!>![EG=d]>(!-(!E!-)!F>)G | A>cf>c e>cB>A | G>Bd>f e2 [Gde]2 | %68
 d>eg>e f>e[Bd]>B | A>Bc>f e2 [Ace]2 | A>cf>c e>cB>A | d>da>a ^d>da>a | e>^eg>f =e>=dF>G | %73
 B2 z2 !fermata![EA]3/2 |] %74
V:2
 z/ z2 | A,2 E,2 A,2 z2 | B,2 z2 E,2 z2 | E,2 z2 E,2 z2 | A,2 E,2 A,2 z2 | A,2 E,2 A,2 z2 | %6
 B,2 z2 z4 | z4 F2 z2 | E2 z2 E,2 z2 | A,2 E,2 A,2 z2 | B,2 z2 E,2 z2 | E,2 z2 E,2 z2 | %12
 A,2 E,2 A,2 z2 | A,2 z2 =G2 z2 | F2 z2 F2 z2 | E,2 z2 E,2 z2 | z2 E,2 A,2 z2 || %17
[K:C] C2 B,2 A,2 F2 | A,2 z2 D2 z2 | A,2 z2 E,2 z2 | A,2 z2 E,2 z2 | C2 B,2 A,2 F2 | A,2 z2 D2 z2 | %23
 E,2 z2 E,2 z2 | A,2 E,2 A,2 z2 | C2 B,2 A,2 F2 | A,2 z2 D2 z2 | A,2 z2 E,2 z2 | A,2 z2 E,2 z2 | %29
 C2 B,2 A,2 F2 | A,2 z2 D2 z2 | E,2 z2 E,2 z2 | A,2 E,2 A,2 z2 ||[K:A] A,2 E,2 A,2 z2 | %34
 B,2 z2 E,2 z2 | E,2 z2 E,2 z2 | A,2 E,2 A,2 z2 | A,2 z2 =G2 z2 | F2 z2 F2 z2 | E,2 z2 E,2 z2 | %40
 z2 E,2 A,2 z2 ||[K:D] D4 D4 | G,4 z2 G,2 | A,4 A,4 | D4 D4 | D4 D4 | E,4 z2 z2 | E,4 E,4 | %48
 A,4 z4 | D4 D4 | G,4 z2 G,2 | A,4 A,4 | D4 D4 | F2 ^E2 =E2 D2 | ^G,4 z4 | A,4 z4 | D2 A,2 D3/2 || %57
[K:A] z/ z2 | A,2 E,2 A,2 z2 | B,2 z2 E,2 z2 | E,2 z2 E,2 z2 | A,2 E,2 A,2 z2 | A,2 E,2 A,2 z2 | %63
 B,2 z2 z4 | z4 F2 z2 | E2 z2 E,2 z2 | A,2 E,2 A,2 z2 | B,2 z2 E,2 z2 | E,2 z2 E,2 z2 | %69
 A,2 E,2 A,2 z2 | A,2 z2 =G2 z2 | F2 z2 F2 z2 | E,2 z2 E,2 z2 | z2 E,2 A,3/2 |] %74
V:3
 (!-(!!4!E,/ !-)!!4!F,3/2) !3!G,/ | !3!A,3/2 !2!C/ !1!F3/2 !2!C/ !1!E3/2 !2!C/ !2!B,3/2 !3!A,/ | %2
 !3!G,3/2 !2!B,/ !2!D3/2 !1!F/ !1!E2 [!3!G,!2!D!1!E]2 | %3
 !2!D3/2 !1!E/ !1!G3/2 !1!E/ !1!F3/2 !1!E/ [!3!B,!2!D]3/2 !2!B,/ | %4
 !3!A,3/2 !2!B,/ !2!C3/2 !1!F/ !1!E2 [!3!A,!2!C!1!E]2 | %5
 !3!A,3/2 !2!C/ !1!F3/2 !2!C/ !1!E3/2 !2!C/ !2!B,3/2 !3!A,/ | %6
 !3!G,3/2 !2!B,/ !1!E3/2 !1!G/ !1!B3/2 !1!B/ !1!^A3/2 !1!B/ | %7
{/!1!B} !1!c2 !1!B2 [!3!^B,!2!^D!1!A]2 !2!C3/2 !2!D/ | %8
 [!3!G,!2!B,!1!E]3/2 !2!^D/ !1!F3/2 !1!E/ [!4!E,!3!G,!2!=D]3/2 (!-(!!4!E,/ !-)!!4!F,3/2) !3!G,/ | %9
 !3!A,3/2 !2!C/ !1!F3/2 !2!C/ !1!E3/2 !2!C/ !2!B,3/2 !3!A,/ | %10
 !3!G,3/2 !2!B,/ !2!D3/2 !1!F/ !1!E2 [!3!G,!2!D!1!E]2 | %11
 !2!D3/2 !1!E/ !1!G3/2 !1!E/ !1!F3/2 !1!E/ [!3!B,!2!D]3/2 !2!B,/ | %12
 !3!A,3/2 !2!B,/ !2!C3/2 !1!F/ !1!E2 [!3!A,!2!C!1!E]2 | %13
 !3!A,3/2 !2!C/ !1!F3/2 !2!C/ !1!E3/2 !2!C/ !2!B,3/2 !3!A,/ | %14
 !2!D3/2 !2!D/ !1!A3/2 !1!A/ !2!^D3/2 !2!D/ !1!A3/2 !1!A/ | %15
 !1!E3/2 !1!^E/ !1!G3/2 !1!F/ !1!=E3/2 !2!=D/ !4!F,3/2 !3!G,/ | !2!B,2 x2 [!4!E,!3!A,]2 !4!E,2 || %17
[K:C] !3!A,2 !2!B,2 [!3!A,!2!C]2 [!3!A,!2!D]2 | %18
 [!3!A,!2!C!1!E]3/2 !1!E/ !1!A3/2 !1!E/ !1!G3/2 !1!F/ !1!E3/2 !2!D/ | %19
 !2!C3/2 !1!E/ !2!D3/2 !2!C/ !2!B,3/2 !2!C/ !2!D3/2 !2!B,/ | %20
 !2!C3/2 !2!B,/ !3!A,3/2 !2!C/ !2!B,3/2 !3!^G,/ !4!E,3/2 !4!E,/ | %21
 !3!A,2 !2!B,2 [!3!A,!2!C]2 [!3!A,!2!D]2 | %22
 [!3!A,!2!C!1!E]3/2 !1!E/ !1!A3/2 !1!E/ !1!G3/2 !1!F/ !1!E3/2 !2!D/ | %23
 (3!2!C !1!E !2!D (3!2!C !2!B, !3!A, !3!^G,3/2 !4!E,/ !4!^F,3/2 !3!G,/ | %24
 !3!A,2 !4!E,2 !3!A,2 !4!E,2 | !3!A,2 !2!B,2 [!3!A,!2!C]2 [!3!A,!2!D]2 | %26
 [!3!A,!2!C!1!E]3/2 !1!E/ !1!A3/2 !1!E/ !1!G3/2 !1!F/ !1!E3/2 !2!D/ | %27
 !2!C3/2 !1!E/ !2!D3/2 !2!C/ !2!B,3/2 !2!C/ !2!D3/2 !2!B,/ | %28
 !2!C3/2 !2!B,/ !3!A,3/2 !2!C/ !2!B,3/2 !3!^G,/ !4!E,3/2 !4!E,/ | %29
 !3!A,2 !2!B,2 [!3!A,!2!C]2 [!3!A,!2!D]2 | %30
 [!3!A,!2!C!1!E]3/2 !1!E/ !1!A3/2 !1!E/ !1!G3/2 !1!F/ !1!E3/2 !2!D/ | %31
 (3!2!C !1!E !2!D (3!2!C !2!B, !3!A, !3!^G,3/2 !4!E,/ !4!^F,3/2 !3!G,/ | %32
 !3!A,2 !4!E,2 !3!A,3/2 !4!E,/ !4!^F,3/2 !3!^G,/ || %33
[K:A] !3!A,3/2 !2!C/ !1!F3/2 !2!C/ !1!E3/2 !2!C/ !2!B,3/2 !3!A,/ | %34
 !3!G,3/2 !2!B,/ !2!D3/2 !1!F/ !1!E2 [!3!G,!2!D!1!E]2 | %35
 !2!D3/2 !1!E/ !1!G3/2 !1!E/ !1!F3/2 !1!E/ [!3!B,!2!D]3/2 !2!B,/ | %36
 !3!A,3/2 !2!B,/ !2!C3/2 !1!F/ !1!E2 [!3!A,!2!C!1!E]2 | %37
 !3!A,3/2 !2!C/ !1!F3/2 !2!C/ !1!E3/2 !2!C/ !2!B,3/2 !3!A,/ | %38
 !2!D3/2 !2!D/ !1!A3/2 !1!A/ !2!^D3/2 !2!D/ !1!A3/2 !1!A/ | %39
 !1!E3/2 !1!^E/ !1!G3/2 !1!F/ !1!=E3/2 !2!=D/ !4!F,3/2 !3!G,/ | !2!B,2 x2 [!4!E,!3!A,]2 !3!A,2 || %41
[K:D]{/!1!F} !1!A !1!^G !1!B !1!A !1!F !3!A, !1!=G !1!F | %42
 !1!F2 [!3!G,!2!B,!1!E]2 [!3!G,!2!B,]2 x2 | %43
 [!3!A,!2!C!1!E] !2!^D !1!F !1!E [!3!A,!2!C!1!G] !1!E !2!C !3!A, | %44
{/!2!C} !2!B,2 !3!A,2 !1!F2 [!3!A,!2!D]2 |{/!1!F} !1!A !1!^G !1!B !1!A !1!F !3!A, !1!=G !1!F | %46
 !1!F2 [!4!E,!3!A,!2!C]2 [!3!A,!2!C!1!E]2 !4!E,2 | %47
 [!3!B,!2!D!1!^G] [!3!B,!2!D!1!G] [!3!B,!2!D!1!G] [!3!B,!2!D!1!G] [!3!B,!2!D!1!G] [!3!B,!2!D!1!G] !1!A !1!B | %48
 [!3!C!2!E!1!A]2 [!4!E,!2!C]2 [!4!F,!2!D]2 [!3!=G,!2!C!1!E]2 | %49
{/!1!F} !1!A !1!^G !1!B !1!A !1!F !3!A, !1!=G !1!F | !1!F2 [!3!G,!2!B,!1!E]2 [!3!G,!2!B,]2 x2 | %51
 [!3!A,!2!C!1!E] !2!^D !1!F !1!E [!3!A,!2!C!1!G] !1!E !2!C !3!A, | %52
{/!2!C} !2!B,2 !3!A,2 !1!F2 [!3!A,!2!D]2 | %53
 [!4!F,!1!A] !1!A [!4!^E,!1!^G] !1!G [!4!=E,!1!=G] !1!G [!4!D,!1!F] !1!F | %54
 !1!E2{/!1!^G} !1!B2 !1!E2 !2!D !2!B, | !3!A,2 !4!E,2 !3!A,2 [!3!G,!2!C!1!A]3/2 !2!C/ | %56
 !2!D2 (3!5!A,, !3!A, !1!F [!3!A,!2!D]3/2 ||[K:A] !4!E,/ !4!F,3/2 !3!G,/ | %58
 !3!A,3/2 !2!C/ !1!F3/2 !2!C/ !1!E3/2 !2!C/ !2!B,3/2 !3!A,/ | %59
 !3!G,3/2 !2!B,/ !2!D3/2 !1!F/ !1!E2 [!3!G,!2!D!1!E]2 | %60
 !2!D3/2 !1!E/ !1!G3/2 !1!E/ !1!F3/2 !1!E/ [!3!B,!2!D]3/2 !2!B,/ | %61
 !3!A,3/2 !2!B,/ !2!C3/2 !1!F/ !1!E2 [!3!A,!2!C!1!E]2 | %62
 !3!A,3/2 !2!C/ !1!F3/2 !2!C/ !1!E3/2 !2!C/ !2!B,3/2 !3!A,/ | %63
 !3!G,3/2 !2!B,/ !1!E3/2 !1!G/ !1!B3/2 !1!B/ !1!^A3/2 !1!B/ | %64
{/!1!B} !1!c2 !1!B2 [!3!^B,!2!^D!1!A]2 !2!C3/2 !2!D/ | %65
 [!3!G,!2!B,!1!E]3/2 !2!^D/ !1!F3/2 !1!E/ [!4!E,!3!G,!2!=D]3/2 (!-(!!4!E,/ !-)!!4!F,3/2) !3!G,/ | %66
 !3!A,3/2 !2!C/ !1!F3/2 !2!C/ !1!E3/2 !2!C/ !2!B,3/2 !3!A,/ | %67
 !3!G,3/2 !2!B,/ !2!D3/2 !1!F/ !1!E2 [!3!G,!2!D!1!E]2 | %68
 !2!D3/2 !1!E/ !1!G3/2 !1!E/ !1!F3/2 !1!E/ [!3!B,!2!D]3/2 !2!B,/ | %69
 !3!A,3/2 !2!B,/ !2!C3/2 !1!F/ !1!E2 [!3!A,!2!C!1!E]2 | %70
 !3!A,3/2 !2!C/ !1!F3/2 !2!C/ !1!E3/2 !2!C/ !2!B,3/2 !3!A,/ | %71
 !2!D3/2 !2!D/ !1!A3/2 !1!A/ !2!^D3/2 !2!D/ !1!A3/2 !1!A/ | %72
 !1!E3/2 !1!^E/ !1!G3/2 !1!F/ !1!=E3/2 !2!=D/ !4!F,3/2 !3!G,/ | !2!B,2 x2 [!4!E,!3!A,]3/2 |] %74
V:4
 x/ x2 | !5!A,,2 !6!E,,2 !5!A,,2 x2 | !5!B,,2 x2 !6!E,,2 x2 | !6!E,,2 x2 !6!E,,2 x2 | %4
 !5!A,,2 !6!E,,2 !5!A,,2 x2 | !5!A,,2 !6!E,,2 !5!A,,2 x2 | !5!B,,2 x2 x4 | x4 !4!F,2 x2 | %8
 !4!E,2 x2 !6!E,,2 x2 | !5!A,,2 !6!E,,2 !5!A,,2 x2 | !5!B,,2 x2 !6!E,,2 x2 | %11
 !6!E,,2 x2 !6!E,,2 x2 | !5!A,,2 !6!E,,2 !5!A,,2 x2 | !5!A,,2 x2 !3!=G,2 x2 | !4!F,2 x2 !4!F,2 x2 | %15
 !6!E,,2 x2 !6!E,,2 x2 | x2 !6!E,,2 !5!A,,2 x2 ||[K:C] !5!C,2 !5!B,,2 !5!A,,2 !4!F,2 | %18
 !5!A,,2 x2 !4!D,2 x2 | !5!A,,2 x2 !6!E,,2 x2 | !5!A,,2 x2 !6!E,,2 x2 | %21
 !5!C,2 !5!B,,2 !5!A,,2 !4!F,2 | !5!A,,2 x2 !4!D,2 x2 | !6!E,,2 x2 !6!E,,2 x2 | %24
 !5!A,,2 !6!E,,2 !5!A,,2 x2 | !5!C,2 !5!B,,2 !5!A,,2 !4!F,2 | !5!A,,2 x2 !4!D,2 x2 | %27
 !5!A,,2 x2 !6!E,,2 x2 | !5!A,,2 x2 !6!E,,2 x2 | !5!C,2 !5!B,,2 !5!A,,2 !4!F,2 | %30
 !5!A,,2 x2 !4!D,2 x2 | !6!E,,2 x2 !6!E,,2 x2 | !5!A,,2 !6!E,,2 !5!A,,2 x2 || %33
[K:A] !5!A,,2 !6!E,,2 !5!A,,2 x2 | !5!B,,2 x2 !6!E,,2 x2 | !6!E,,2 x2 !6!E,,2 x2 | %36
 !5!A,,2 !6!E,,2 !5!A,,2 x2 | !5!A,,2 x2 !3!=G,2 x2 | !4!F,2 x2 !4!F,2 x2 | !6!E,,2 x2 !6!E,,2 x2 | %40
 x2 !6!E,,2 !5!A,,2 x2 ||[K:D] !4!D,4 !4!D,4 | !6!G,,4 x2 !6!G,,2 | !5!A,,4 !5!A,,4 | %44
 !4!D,4 !4!D,4 | !4!D,4 !4!D,4 | !6!E,,4 x2 x2 | !6!E,,4 !6!E,,4 | !5!A,,4 x4 | !4!D,4 !4!D,4 | %50
 !6!G,,4 x2 !6!G,,2 | !5!A,,4 !5!A,,4 | !4!D,4 !4!D,4 | x2 x2 x2 x2 | !6!^G,,4 x4 | !5!A,,4 x4 | %56
 !4!D,2 x2 !4!D,3/2 ||[K:A] x/ x2 | !5!A,,2 !6!E,,2 !5!A,,2 x2 | !5!B,,2 x2 !6!E,,2 x2 | %60
 !6!E,,2 x2 !6!E,,2 x2 | !5!A,,2 !6!E,,2 !5!A,,2 x2 | !5!A,,2 !6!E,,2 !5!A,,2 x2 | !5!B,,2 x2 x4 | %64
 x4 !4!F,2 x2 | !4!E,2 x2 !6!E,,2 x2 | !5!A,,2 !6!E,,2 !5!A,,2 x2 | !5!B,,2 x2 !6!E,,2 x2 | %68
 !6!E,,2 x2 !6!E,,2 x2 | !5!A,,2 !6!E,,2 !5!A,,2 x2 | !5!A,,2 x2 !3!=G,2 x2 | !4!F,2 x2 !4!F,2 x2 | %72
 !6!E,,2 x2 !6!E,,2 x2 | x2 !6!E,,2 !5!A,,3/2 |] %74

